X: 5
T: Lord Dalkeiths Reel    (C)
O: 1779
R: reel
S: Image from Darlene Wigton, June 2017
Z: 2017 John Chambers <jc:trillian.mit.edu>
M: 2/4
L: 1/16
K: C
% - - - - - - - - - - - - - - - - - - - - - - - - - - - - -
|:\
"C"(cBcG) "F"A2c2 | "Dm"(defd) "G7"B2G2 |\
"C/e"(cBcG) "F"A2c2 | "G7"(fdBd) "C"c4 :: \
"F"[a4c4] "(Dm)"fdfd | "C"[g4c4] ecec |
"F"[a4c4] "(Dm)"fdfd | "G7"B2G2 "C"c4 :: \
"C"cgcg "(F)"caca | "(G7)"cbcb "C"c'2c2 |\
"C"cgcg "(F)"caca | "(G7)"cbcb "C"c'4 :| [c'4G4]
% - - - - - - - - - - - - - - - - - - - - - - - - - - - - -

%%sep 1 1 500

